components/icon/svg/24/action_check-circle.svg

<?xml version="1.0" encoding="UTF-8"?>
<svg width="24px" height="24px" viewBox="0 0 24 24" version="1.1" xmlns="http://www.w3.org/2000/svg" xmlns:xlink="http://www.w3.org/1999/xlink">
    <!-- Generator: Sketch 64 (93537) - https://sketch.com -->
    <title>ic-db_action_check-circle_24</title>
    <desc>Created with Sketch.</desc>
    <g id="Symbols:Icon" stroke="none" stroke-width="1" fill="none" fill-rule="evenodd">
        <g id="24dp-Icon/Action/Check-Circle" fill="#282D37">
            <path d="M12,2 C17.53125,2 22,6.4688 22,12 C22,17.5312 17.53125,22 12,22 C6.46875,22 2,17.5312 2,12 C2,6.4688 6.46875,2 12,2 Z M12,4 C7.5625,4 4,7.5625 4,12 C4,16.4375 7.5625,20 12,20 C16.4375,20 20,16.4375 20,12 C20,7.5625 16.4375,4 12,4 Z M16.5,8.375 C17.0625,8.375 17.53125,8.8438 17.53125,9.3438 C17.53125,9.5938 17.46875,9.8438 17.21875,10.0938 L10.84375,16.4375 C10.65625,16.625 10.40625,16.75 10.125,16.75 C9.875,16.75 9.65625,16.6562 9.4375,16.4375 L6.71875,13.7188 C6.53125,13.5312 6.4375,13.25 6.4375,13 C6.4375,12.4375 6.90625,12 7.4375,12 C7.71875,12 7.90625,12.0938 8.125,12.3125 L10.15625,14.3125 L15.8125,8.6562 C16,8.4688 16.25,8.375 16.5,8.375 Z" id="🎨-Color"></path>
        </g>
    </g>
</svg>

<svg width="24" height="24" xmlns="http://www.w3.org/2000/svg"><path d="M12 2a9.99 9.99 0 0110 10 9.99 9.99 0 01-10 10A9.99 9.99 0 012 12 9.99 9.99 0 0112 2zm0 2c-4.438 0-8 3.563-8 8 0 4.438 3.563 8 8 8 4.438 0 8-3.563 8-8 0-4.438-3.563-8-8-8zm4.5 4.375c.563 0 1.031.469 1.031.969 0 .25-.062.5-.312.75l-6.375 6.344a1.017 1.017 0 01-.719.312c-.25 0-.469-.094-.688-.313L6.72 13.72A1.043 1.043 0 016.437 13c0-.563.47-1 1-1 .282 0 .47.094.688.313l2.031 2 5.656-5.657a.97.97 0 01.688-.281z" fill="#282D37" fill-rule="evenodd"/></svg>
